public/assets/images/icon/checkmarkIcon.svg

<svg width="30" height="30" viewBox="0 0 30 30" fill="none" xmlns="http://www.w3.org/2000/svg">
<path opacity="0.992" fill-rule="evenodd" clip-rule="evenodd" d="M14.4479 0C20.2888 0.0097364 24.7742 2.45256 27.9039 7.32847C30.2642 11.5303 30.6337 15.9027 29.0124 20.4458C26.7442 25.7718 22.7516 28.9228 17.0344 29.8989C11.2597 30.4847 6.56909 28.5243 2.96249 24.0177C-0.155255 19.5597 -0.812148 14.7562 0.991812 9.60707C2.53348 5.8278 5.15079 3.06682 8.84374 1.32405C10.6397 0.541383 12.5077 0.100037 14.4479 0ZM22.4538 8.86806C23.2451 8.87053 23.5017 9.24003 23.2236 9.97657C19.8159 13.8769 16.4083 17.7772 13.0006 21.6775C12.6859 21.9629 12.3472 21.9937 11.9845 21.7699C10.4962 19.7889 9.00799 17.808 7.51969 15.827C7.26104 15.3777 7.35342 15.0184 7.79682 14.7493C7.98157 14.7082 8.16632 14.7082 8.35107 14.7493C9.48009 15.5088 10.6092 16.2684 11.7382 17.0279C12.0447 17.2536 12.3732 17.2946 12.7235 17.1511C15.9599 14.3744 19.2033 11.6133 22.4538 8.86806Z" fill="#1AD079"/>
</svg>

<?xml version="1.0" encoding="UTF-8"?>
<svg id="Capa_1" xmlns="http://www.w3.org/2000/svg" version="1.1" viewBox="0 0 30 30">
  <!-- Generator: Adobe Illustrator 29.8.1, SVG Export Plug-In . SVG Version: 2.1.1 Build 2)  -->
  <defs>
    <style>
      .st0 {
        fill: #129689;
        fill-rule: evenodd;
        isolation: isolate;
        opacity: .99;
      }
    </style>
  </defs>
  <path class="st0" d="M14.45,0c5.84,0,10.33,2.45,13.46,7.33,2.36,4.2,2.73,8.57,1.11,13.12-2.27,5.33-6.26,8.48-11.98,9.45-5.77.59-10.47-1.37-14.07-5.88C-.16,19.56-.81,14.76.99,9.61,2.53,5.83,5.15,3.07,8.84,1.32c1.8-.78,3.66-1.22,5.6-1.32ZM22.45,8.87c.79,0,1.05.37.77,1.11-3.41,3.9-6.82,7.8-10.22,11.7-.31.29-.65.32-1.02.09-1.49-1.98-2.98-3.96-4.46-5.94-.26-.45-.17-.81.28-1.08.18-.04.37-.04.55,0,1.13.76,2.26,1.52,3.39,2.28.31.23.64.27.99.12,3.24-2.78,6.48-5.54,9.73-8.28Z"/>
</svg>
